assets/2023/icons/folderHelpers.svg

<!-- Copyright 2000-2023 JetBrains s.r.o. and contributors. Use of this source code is governed by the Apache 2.0 license. -->
<svg width="17" height="16" viewBox="0 0 17 16" fill="none" xmlns="http://www.w3.org/2000/svg">
<path d="M10.9929 9.7H12.0009V12.3145H14.9979V9.7H16.0059V16H14.9979V13.255H12.0009V16H10.9929V9.7Z" fill="#3574F0"/>
<path d="M2.63333 2C1.73127 2 1 2.83574 1 3.86667V12.1333C1 13.1643 1.73127 14 2.63333 14H9.99316V8.7C12.4064 8.7 13.0444 8.7 15 8.7V6C15 4.89543 14.1046 4 13 4L8.46667 4L6.84336 2.30775C6.65477 2.11115 6.39413 2 6.1217 2H2.63333Z" fill="#EBECF0"/>
<path d="M6.1217 3L2.63333 3C2.40481 3 2 3.25841 2 3.86667V12.1333C2 12.7416 2.40481 13 2.63333 13H9.99316V14H2.63333C1.73127 14 1 13.1643 1 12.1333V3.86667C1 2.83574 1.73127 2 2.63333 2H6.1217C6.39413 2 6.65477 2.11115 6.84336 2.30775L8.46667 4L13 4C14.1046 4 15 4.89543 15 6V8.7H14V6C14 5.44771 13.5523 5 13 5H8.04022L6.1217 3Z" fill="#6C707E"/>
<path d="M15 9.7V10.4804L14.9982 10.479V9.7H15Z" fill="#6C707E"/>
</svg>

<svg xmlns="http://www.w3.org/2000/svg" width="17" height="16" fill="none" viewBox="0 0 17 16"><path fill="#3574F0" d="M10.993 9.7H12v2.615h2.997V9.7h1.008V16h-1.008v-2.745H12V16h-1.008z"/><path fill="#EBECF0" d="M2.633 2C1.731 2 1 2.836 1 3.867v8.266C1 13.164 1.731 14 2.633 14h7.36V8.7H15V6a2 2 0 0 0-2-2H8.467L6.843 2.308A1 1 0 0 0 6.122 2z"/><path fill="#6C707E" d="M6.122 3H2.633C2.405 3 2 3.258 2 3.867v8.266c0 .609.405.867.633.867h7.36v1h-7.36C1.731 14 1 13.164 1 12.133V3.867C1 2.836 1.731 2 2.633 2h3.489a1 1 0 0 1 .721.308L8.467 4H13a2 2 0 0 1 2 2v2.7h-1V6a1 1 0 0 0-1-1H8.04zM15 9.7v.78l-.002-.001V9.7z"/></svg>
